!!!!SEGMENT:Osakizaki.krn
!!!OTL: お先きざき
!!!OPR:Eiga Banso Kyokusyu,jidai-geki,kouhen
!!!YOY:1928
!!!ONB:Yusan,Hanami
**kern
*clefG2
*k[b-]
*F:
*M2/4
=1
4b-
4a
=2
4dd
4dd
=3
4ee
4dd
=4
4e
4ff
=5
4ee
4dd
=6
4.b-
8dd
=7
4b-
4a
=8
4ff
4ff
=9
4ee
4dd
=10
4b-
4a
=11
4dd
4b-
=12
4a
4f
=13
2e
=14
4g
4e
=15
4g
4a
=16
4b-
4dd
=17
4ee
4dd
=18
4e
4b-
=19
4a
4r
==
*-
